X: 1811
T: Sâki-yi Gülçehre
C: Ahmet Avni Konuk
O: Turkey
F: http://compmusic.upf.edu/node/140
N: canfeza--kupe--aksaksemai--saki-yi--ahmet_avni_konuk
N: makam= canfeza
N: form= kupe
N: usul= aksaksemai = 10/8
M: 10/8
L: 1/16
K: C _1/4B _7/8d  
Q: 1/4=102
%%MIDI tuningsystem comma53
c4 c2_3/4d3/2c/ _2/4BcB2 dcc4z2  | \
w:  Sâ kı yı  *  *  *  *  *  *  gül  | 
c_3/4dc2 d2dc c_2/4BBA BcA4z2  | 
w:  çeh *  *  re  mey  *  *  *  *  *  *  *  sun   | 
=d4 d2d3/2c/ dede dcc3/2_2/4B/ c2z2  | \
w:  â şı ka  *  *  *  *  *  *  *  et  | 
c=dc2 _2/4B2B3/2A/ BcBc BAA4z2  | 
w:  me  *  *  e zâ    | 
AG^3/4F2 G2A3/2G/ A_2/4BAB AGG3/2F/ GAG2  | \
w:  Nâz_ *  *  ü  ref *  *  *  *  *  *  *  tâ  | 
GAG2 ^3/4F2=DE FGFG A=BBA G^FE2  | 
w:  rın *  *  la  ehl_ *  *  *  *  *  *  *  i   | 
E4 =D2E2 EDE^3/4F GAAG FED2  | =D=BA2 G2G3^3/4FFE FEE4z2  | 
w:  mec li se  *  *  *  *  *  *  ol   |  Can *  *  fe zâ    | 
|


